; THIS IS A TEST FILE. IT EMULATES A PRINT, BUT DOES NOT EXTRUDE FILAMENT AND DOES NOT HEAD THE BED OR THE EXTRUDER.
;
; generated by PrusaSlicer 2.3.3+linux-x64 on 2021-09-17 at 10:58:37 UTC

; 

; external perimeters extrusion width = 0.45mm
; perimeters extrusion width = 0.45mm
; infill extrusion width = 0.45mm
; solid infill extrusion width = 0.45mm
; top infill extrusion width = 0.40mm
; first layer extrusion width = 0.42mm

M73 P0 R24
M73 Q0 S24
M201 X1000 Y1000 Z200 E0 ; sets maximum accelerations, mm/sec^2
M203 X200 Y200 Z12 E0 ; sets maximum feedrates, mm/sec
M204 P1250 R1250 T1250 ; sets acceleration (P, T) and retract acceleration (R), mm/sec^2
M205 X8.00 Y8.00 Z0.40 E0 ; sets the jerk limits, mm/sec
M205 S0 T0 ; sets the minimum extruding and travel feed rate, mm/sec
M107
;TYPE:Custom
M862.3 P "MK3S" ; printer model check
M862.1 P0.4 ; nozzle diameter check
M115 U3.10.0 ; tell printer latest fw version
G90 ; use absolute coordinates
M83 ; extruder relative mode
; M104 S215 ; set extruder temp
; M140 S60 ; set bed temp
M104 S0 ; disable extruder temp
M140 S0 ; disable bed temp
; M190 S60 ; wait for bed temp
; M109 S215 ; wait for extruder temp
G28 W ; home all without mesh bed level
G80 ; mesh bed leveling
G1 Y-3.0 F1000.0 ; go outside print area
G92 E0
G1 X60.0 E0 F1000.0 ; intro line
G1 X100.0 E0 F1000.0 ; intro line
G92 E0
M221 S95

; Don't change E values below. Excessive value can damage the printer.

G21 ; set units to millimeters
G90 ; use absolute coordinates
M83 ; use relative distances for extrusion
M900 K0.05 ; Filament gcode LA 1.5
M900 K30 ; Filament gcode LA 1.0
;LAYER_CHANGE
;Z:0.2
;HEIGHT:0.2
;BEFORE_LAYER_CHANGE
G92 E0
;0.2


G1 E0 F2100.000
G1 Z0.400 F10800.000
;AFTER_LAYER_CHANGE
;0.2
G1 X117.061 Y98.921
G1 Z0.200
G1 E0 F2100.000
M204 S500
;TYPE:Skirt
;WIDTH:0.42
G1 F1200.000
G1 X117.508 Y98.104 E0
G1 X117.947 Y97.636 E0
G1 X118.472 Y97.267 E0
G1 X119.061 Y97.013 E0
G1 X119.694 Y96.884 E0
G1 X130.004 Y96.869 E0
G1 X131.083 Y97.062 E0
G1 X132.026 Y97.612 E0
G1 X132.725 Y98.457 E0
G1 X133.089 Y99.490 E0
G1 X133.128 Y110.153 E0
G1 X132.942 Y111.071 E0
G1 X132.492 Y111.896 E0
G1 X132.020 Y112.393 E0
G1 X131.447 Y112.777 E0
G1 X130.804 Y113.026 E0
G1 X130.127 Y113.129 E0
G1 X119.834 Y113.127 E0
G1 X118.921 Y112.939 E0
G1 X118.104 Y112.492 E0
G1 X117.607 Y112.020 E0
G1 X117.223 Y111.447 E0
G1 X116.974 Y110.804 E0
G1 X116.871 Y110.127 E0
G1 X116.873 Y99.834 E0
G1 X117.049 Y98.980 E0
M204 S1000
G1 X117.416 Y99.055 F10800.000
M204 S500
G1 F1200.000
G1 X117.833 Y98.300 E0
G1 X118.226 Y97.893 E0
G1 X118.689 Y97.578 E0
G1 X119.207 Y97.362 E0
G1 X119.762 Y97.256 E0
G1 X130.004 Y97.246 E0
G1 X130.959 Y97.418 E0
G1 X131.799 Y97.914 E0
G1 X132.410 Y98.668 E0
G1 X132.724 Y99.591 E0
G1 X132.751 Y110.127 E0
G1 X132.582 Y110.959 E0
G1 X132.167 Y111.700 E0
G1 X131.746 Y112.130 E0
G1 X131.245 Y112.457 E0
G1 X130.682 Y112.668 E0
G1 X130.091 Y112.753 E0
G1 X119.865 Y112.751 E0
G1 X119.037 Y112.580 E0
G1 X118.300 Y112.167 E0
G1 X117.870 Y111.746 E0
G1 X117.543 Y111.245 E0
G1 X117.332 Y110.682 E0
G1 X117.247 Y110.091 E0
G1 X117.249 Y99.865 E0
G1 X117.404 Y99.114 E0
M204 S1000
;WIPE_START
G1 F8640.000
G1 X117.833 Y98.300 E0
G1 X118.226 Y97.893 E0
G1 X118.689 Y97.578 E0
G1 X119.207 Y97.362 E0
G1 X119.762 Y97.256 E0
G1 X119.881 Y97.256 E0
;WIPE_END
G1 E0 F2100.000
G1 Z0.600 F10800.000
G1 X118.896 Y97.895
G1 Z0.200
G1 E0 F2100.000
M204 S500
G1 F1200.000
G1 X119.824 Y97.629 E0
G1 X130.004 Y97.623 E0
G1 X130.842 Y97.777 E0
G1 X131.569 Y98.215 E0
G1 X132.096 Y98.880 E0
M73 Q1 S24
G1 X132.356 Y99.687 E0
G1 X132.375 Y110.103 E0
M73 P1 R24
G1 X132.223 Y110.842 E0
G1 X131.849 Y111.494 E0
G1 X131.486 Y111.856 E0
G1 X131.053 Y112.131 E0
G1 X130.571 Y112.308 E0
G1 X130.062 Y112.376 E0
G1 X119.893 Y112.375 E0
G1 X119.158 Y112.223 E0
G1 X118.506 Y111.849 E0
G1 X118.144 Y111.486 E0
G1 X117.869 Y111.053 E0
G1 X117.692 Y110.571 E0
G1 X117.624 Y110.062 E0
G1 X117.625 Y99.893 E0
G1 X117.777 Y99.158 E0
G1 X118.151 Y98.506 E0
G1 X118.850 Y97.933 E0
M204 S1000
; printing object m3_square_nut_size_test.stl id:0 copy 0
;WIPE_START
G1 F8640.000
G1 X119.824 Y97.629 E0
G1 X122.095 Y97.628 E0
;WIPE_END
G1 E0 F2100.000
G1 Z0.600 F10800.000
G1 X123.482 Y102.800
G1 Z0.200
G1 E0 F2100.000
M204 S500
;TYPE:Perimeter
G1 F1200.000
G1 X124.052 Y102.501 E0
G1 X124.687 Y102.345 E0
G1 X125.366 Y102.358 E0
G1 X125.948 Y102.501 E0
G1 X126.518 Y102.800 E0
G1 X127.001 Y103.228 E0
G1 X127.372 Y103.766 E0
G1 X127.601 Y104.405 E0
G1 X127.673 Y105.000 E0
G1 X127.595 Y105.640 E0
G1 X127.367 Y106.242 E0
G1 X127.001 Y106.772 E0
G1 X126.518 Y107.200 E0
G1 X125.948 Y107.499 E0
G1 X125.313 Y107.655 E0
G1 X124.634 Y107.642 E0
G1 X124.052 Y107.499 E0
G1 X123.473 Y107.195 E0
G1 X122.974 Y106.735 E0
G1 X122.633 Y106.242 E0
G1 X122.405 Y105.640 E0
G1 X122.327 Y105.000 E0
G1 X122.405 Y104.360 E0
G1 X122.633 Y103.758 E0
G1 X122.999 Y103.228 E0
G1 X123.437 Y102.840 E0
M204 S1000
G1 X123.687 Y103.122 F10800.000
M204 S500
G1 F1200.000
G1 X124.187 Y102.856 E0
G1 X124.729 Y102.722 E0
G1 X125.317 Y102.734 E0
G1 X125.813 Y102.856 E0
G1 X126.302 Y103.113 E0
G1 X126.716 Y103.480 E0
G1 X127.034 Y103.939 E0
G1 X127.231 Y104.493 E0
G1 X127.293 Y105.000 E0
G1 X127.226 Y105.549 E0
G1 X127.030 Y106.066 E0
G1 X126.716 Y106.520 E0
G1 X126.302 Y106.887 E0
G1 X125.813 Y107.144 E0
G1 X125.271 Y107.278 E0
G1 X124.683 Y107.266 E0
G1 X124.187 Y107.144 E0
G1 X123.692 Y106.884 E0
G1 X123.260 Y106.486 E0
G1 X122.970 Y106.066 E0
G1 X122.774 Y105.549 E0
G1 X122.707 Y105.000 E0
G1 X122.774 Y104.451 E0
G1 X122.970 Y103.934 E0
G1 X123.284 Y103.480 E0
G1 X123.642 Y103.162 E0
M204 S1000
G1 X123.892 Y103.444 F10800.000
M204 S500
;TYPE:External perimeter
G1 F1200.000
G1 X124.322 Y103.211 E0
G1 X124.771 Y103.100 E0
G1 X125.267 Y103.110 E0
G1 X125.678 Y103.211 E0
G1 X126.087 Y103.426 E0
G1 X126.432 Y103.731 E0
G1 X126.695 Y104.113 E0
G1 X126.862 Y104.580 E0
G1 X126.913 Y105.000 E0
G1 X126.857 Y105.458 E0
G1 X126.694 Y105.889 E0
G1 X126.432 Y106.269 E0
G1 X126.087 Y106.574 E0
G1 X125.678 Y106.789 E0
G1 X125.229 Y106.900 E0
G1 X124.733 Y106.890 E0
G1 X124.322 Y106.789 E0
G1 X123.911 Y106.573 E0
G1 X123.547 Y106.237 E0
G1 X123.306 Y105.889 E0
G1 X123.143 Y105.458 E0
G1 X123.087 Y105.000 E0
G1 X123.143 Y104.542 E0
G1 X123.306 Y104.111 E0
G1 X123.568 Y103.731 E0
G1 X123.847 Y103.484 E0
M204 S1000
G1 X123.856 Y103.046 F10800.000
;WIPE_START
G1 F8640.000
G1 X124.322 Y103.211 E0
G1 X124.771 Y103.100 E0
G1 X125.267 Y103.110 E0
G1 X125.678 Y103.211 E0
G1 X126.087 Y103.426 E0
G1 X126.432 Y103.731 E0
G1 X126.681 Y104.093 E0
;WIPE_END
G1 E0 F2100.000
G1 Z0.600 F10800.000
G1 X121.164 Y101.164
G1 Z0.200
G1 E0 F2100.000
M204 S500
;TYPE:Perimeter
G1 F1200.000
G1 X128.836 Y101.164 E0
G1 X128.836 Y108.836 E0
G1 X121.164 Y108.836 E0
G1 X121.164 Y101.224 E0
M204 S1000
G1 X120.787 Y100.787 F10800.000
M204 S500
G1 F1200.000
G1 X129.213 Y100.787 E0
G1 X129.213 Y109.213 E0
G1 X120.787 Y109.213 E0
G1 X120.787 Y100.847 E0
M204 S1000
G1 X120.410 Y100.410 F10800.000
M204 S500
;TYPE:External perimeter
G1 F1200.000
G1 X129.590 Y100.410 E0
G1 X129.590 Y109.590 E0
G1 X120.410 Y109.590 E0
G1 X120.410 Y100.470 E0
M204 S1000
G1 X120.796 Y100.514 F10800.000
;WIPE_START
G1 F8640.000
G1 X123.701 Y100.448 E0
;WIPE_END
G1 E0 F2100.000
G1 Z0.600 F10800.000
G1 X128.723 Y102.041
G1 Z0.200
G1 E0 F2100.000
M204 S500
;TYPE:Solid infill
;WIDTH:0.420876
G1 F1200.000
G1 X128.128 Y101.447 E0
G1 X127.594 Y101.447 E0
G1 X128.553 Y102.406 E0
G1 X128.553 Y102.941 E0
G1 X127.059 Y101.447 E0
G1 X126.525 Y101.447 E0
G1 X128.553 Y103.475 E0
G1 X128.553 Y104.010 E0
G1 X125.990 Y101.447 E0
G1 X125.456 Y101.447 E0
G1 X128.723 Y104.714 E0
M204 S1000
;WIPE_START
G1 F8640.000
G1 X126.395 Y102.387 E0
;WIPE_END
G1 E0 F2100.000
G1 Z0.600 F10800.000
G1 X127.632 Y104.158
G1 Z0.200
G1 E0 F2100.000
M204 S500
G1 F1200.000
G1 X128.553 Y105.079 E0
G1 X128.553 Y105.613 E0
G1 X127.956 Y105.016 E0
G1 X127.898 Y105.493 E0
G1 X128.553 Y106.148 E0
G1 X128.553 Y106.682 E0
G1 X127.791 Y105.920 E0
G1 X127.644 Y106.308 E0
G1 X128.553 Y107.217 E0
G1 X128.553 Y107.751 E0
G1 X127.438 Y106.636 E0
G1 X127.220 Y106.953 E0
G1 X128.553 Y108.286 E0
G1 X128.553 Y108.553 E0
G1 X128.286 Y108.553 E0
G1 X126.938 Y107.205 E0
G1 X126.649 Y107.451 E0
G1 X127.751 Y108.553 E0
G1 X127.217 Y108.553 E0
G1 X126.298 Y107.634 E0
G1 X126.049 Y107.765 E0
G1 X125.925 Y107.796 E0
G1 X126.682 Y108.553 E0
G1 X126.148 Y108.553 E0
G1 X125.496 Y107.902 E0
G1 X125.345 Y107.939 E0
G1 X124.992 Y107.932 E0
G1 X125.613 Y108.553 E0
G1 X125.079 Y108.553 E0
G1 X124.170 Y107.645 E0
M204 S1000
;WIPE_START
G1 F8640.000
G1 X125.079 Y108.553 E0
G1 X125.613 Y108.553 E0
G1 X124.992 Y107.932 E0
G1 X125.345 Y107.939 E0
G1 X125.496 Y107.902 E0
G1 X125.557 Y107.962 E0
;WIPE_END
G1 E0 F2100.000
G1 Z0.600 F10800.000
G1 X125.830 Y102.355
G1 Z0.200
G1 E0 F2100.000
M204 S500
G1 F1200.000
G1 X124.921 Y101.447 E0
M73 Q2 S24
G1 X124.387 Y101.447 E0
G1 X125.008 Y102.068 E0
G1 X124.655 Y102.061 E0
G1 X124.504 Y102.098 E0
G1 X123.852 Y101.447 E0
G1 X123.318 Y101.447 E0
G1 X124.075 Y102.204 E0
G1 X123.951 Y102.235 E0
G1 X123.702 Y102.366 E0
G1 X122.783 Y101.447 E0
M73 P2 R24
G1 X122.249 Y101.447 E0
G1 X123.351 Y102.550 E0
G1 X123.062 Y102.795 E0
G1 X121.714 Y101.447 E0
G1 X121.447 Y101.447 E0
G1 X121.447 Y101.714 E0
G1 X122.780 Y103.047 E0
G1 X122.562 Y103.364 E0
G1 X121.447 Y102.249 E0
G1 X121.447 Y102.783 E0
G1 X122.356 Y103.692 E0
G1 X122.209 Y104.080 E0
G1 X121.447 Y103.318 E0
G1 X121.447 Y103.852 E0
G1 X122.102 Y104.508 E0
G1 X122.044 Y104.984 E0
G1 X121.447 Y104.387 E0
G1 X121.447 Y104.921 E0
G1 X122.357 Y105.831 E0
M204 S1000
;WIPE_START
G1 F8640.000
G1 X121.447 Y104.921 E0
G1 X121.447 Y104.387 E0
G1 X122.044 Y104.984 E0
G1 X122.102 Y104.508 E0
G1 X121.999 Y104.405 E0
;WIPE_END
G1 E0 F2100.000
G1 Z0.600 F10800.000
G1 X121.277 Y105.286
G1 Z0.200
G1 E0 F2100.000
M204 S500
G1 F1200.000
G1 X124.544 Y108.553 E0
G1 X124.010 Y108.553 E0
G1 X121.447 Y105.990 E0
G1 X121.447 Y106.525 E0
G1 X123.475 Y108.553 E0
G1 X122.941 Y108.553 E0
G1 X121.447 Y107.059 E0
G1 X121.447 Y107.594 E0
G1 X122.406 Y108.553 E0
G1 X121.872 Y108.553 E0
G1 X121.277 Y107.959 E0
M204 S1000
; stop printing object m3_square_nut_size_test.stl id:0 copy 0
M106 S84.15
;LAYER_CHANGE
;Z:0.4
;HEIGHT:0.2
;BEFORE_LAYER_CHANGE
G92 E0
;0.4


;WIPE_START
G1 F8640.000
G1 X121.872 Y108.553 E0
G1 X122.406 Y108.553 E0
G1 X121.447 Y107.594 E0
G1 X121.447 Y107.059 E0
G1 X121.465 Y107.077 E0
;WIPE_END
G1 E0 F2100.000
G1 Z0.600 F10800.000
;AFTER_LAYER_CHANGE
;0.4
G1 X132.725 Y98.457
G1 Z0.400
G1 E0 F2100.000
;TYPE:Skirt
;WIDTH:0.42
G1 F1800.000
G1 X133.089 Y99.490 E0
G1 X133.128 Y110.153 E0
G1 X132.942 Y111.071 E0
G1 X132.492 Y111.896 E0
G1 X132.020 Y112.393 E0
G1 X131.447 Y112.777 E0
G1 X130.804 Y113.026 E0
G1 X130.127 Y113.129 E0
G1 X119.834 Y113.127 E0
G1 X118.921 Y112.939 E0
G1 X118.104 Y112.492 E0
G1 X117.607 Y112.020 E0
G1 X117.223 Y111.447 E0
G1 X116.974 Y110.804 E0
G1 X116.871 Y110.127 E0
G1 X116.873 Y99.834 E0
G1 X117.061 Y98.921 E0
G1 X117.508 Y98.104 E0
G1 X117.947 Y97.636 E0
G1 X118.472 Y97.267 E0
G1 X119.061 Y97.013 E0
G1 X119.694 Y96.884 E0
G1 X130.004 Y96.869 E0
G1 X131.083 Y97.062 E0
G1 X132.026 Y97.612 E0
G1 X132.686 Y98.411 E0
G1 X132.394 Y98.648 F10800.000
G1 F1800.000
G1 X132.724 Y99.591 E0
G1 X132.751 Y110.127 E0
G1 X132.582 Y110.959 E0
G1 X132.167 Y111.700 E0
G1 X131.746 Y112.130 E0
G1 X131.245 Y112.457 E0
G1 X130.682 Y112.668 E0
G1 X130.091 Y112.753 E0
M73 Q2 S23
G1 X119.865 Y112.751 E0
M73 P2 R23
G1 X119.037 Y112.580 E0
G1 X118.300 Y112.167 E0
G1 X117.870 Y111.746 E0
G1 X117.543 Y111.245 E0
G1 X117.332 Y110.682 E0
G1 X117.247 Y110.091 E0
G1 X117.249 Y99.865 E0
G1 X117.420 Y99.037 E0
G1 X117.833 Y98.300 E0
G1 X118.226 Y97.893 E0
G1 X118.689 Y97.578 E0
G1 X119.207 Y97.362 E0
G1 X119.762 Y97.256 E0
G1 X130.004 Y97.246 E0
G1 X130.959 Y97.418 E0
G1 X131.799 Y97.914 E0
G1 X132.357 Y98.601 E0
G1 X132.096 Y98.880 F10800.000
G1 F1800.000
G1 X132.356 Y99.687 E0
G1 X132.375 Y110.103 E0
G1 X132.223 Y110.842 E0
G1 X131.849 Y111.494 E0
G1 X131.486 Y111.856 E0
G1 X131.053 Y112.131 E0
G1 X130.571 Y112.308 E0
G1 X130.062 Y112.376 E0
G1 X119.893 Y112.375 E0
G1 X119.158 Y112.223 E0
G1 X118.506 Y111.849 E0
G1 X118.144 Y111.486 E0
G1 X117.869 Y111.053 E0
G1 X117.692 Y110.571 E0
G1 X117.624 Y110.062 E0
G1 X117.625 Y99.893 E0
G1 X117.777 Y99.158 E0
G1 X118.151 Y98.506 E0
G1 X118.896 Y97.895 E0
G1 X119.824 Y97.629 E0
G1 X130.004 Y97.623 E0
G1 X130.842 Y97.777 E0
G1 X131.569 Y98.215 E0
G1 X132.059 Y98.833 E0
; printing object m3_square_nut_size_test.stl id:0 copy 0
;WIPE_START
G1 F8640.000
G1 X132.356 Y99.687 E0
G1 X132.361 Y102.074 E0
;WIPE_END
G1 E0 F2100.000
G1 Z0.800 F10800.000
G1 X126.906 Y103.311
G1 Z0.400
G1 E0 F2100.000
M204 S300
;TYPE:Perimeter
;WIDTH:0.45
G1 F1200.000
G1 X127.255 Y103.816 E0
G1 X127.473 Y104.391 E0
G1 X127.547 Y105.000 E0
G1 X127.471 Y105.621 E0
G1 X127.229 Y106.222 E0
G1 X126.906 Y106.689 E0
G1 X126.447 Y107.096 E0
G1 X125.903 Y107.381 E0
G1 X125.296 Y107.531 E0
G1 X124.648 Y107.517 E0
G1 X124.097 Y107.381 E0
G1 X123.553 Y107.096 E0
G1 X123.094 Y106.689 E0
G1 X122.745 Y106.184 E0
G1 X122.527 Y105.609 E0
G1 X122.453 Y105.000 E0
G1 X122.529 Y104.379 E0
G1 X122.771 Y103.778 E0
G1 X123.094 Y103.311 E0
G1 X123.553 Y102.904 E0
G1 X124.097 Y102.619 E0
G1 X124.704 Y102.469 E0
G1 X125.352 Y102.483 E0
G1 X125.903 Y102.619 E0
G1 X126.447 Y102.904 E0
G1 X126.861 Y103.271 E0
M204 S1000
G1 X126.591 Y103.576 F10800.000
M204 S300
G1 F1200.000
G1 X126.892 Y104.007 E0
G1 X127.075 Y104.489 E0
G1 X127.137 Y105.000 E0
G1 X127.074 Y105.518 E0
G1 X126.868 Y106.027 E0
G1 X126.599 Y106.417 E0
G1 X126.214 Y106.758 E0
G1 X125.758 Y106.998 E0
G1 X125.251 Y107.123 E0
G1 X124.702 Y107.111 E0
G1 X124.242 Y106.998 E0
G1 X123.786 Y106.758 E0
G1 X123.401 Y106.417 E0
G1 X123.108 Y105.993 E0
G1 X122.925 Y105.511 E0
G1 X122.863 Y105.000 E0
G1 X122.926 Y104.482 E0
G1 X123.132 Y103.973 E0
G1 X123.401 Y103.583 E0
G1 X123.786 Y103.242 E0
G1 X124.242 Y103.002 E0
G1 X124.749 Y102.877 E0
G1 X125.298 Y102.889 E0
G1 X125.758 Y103.002 E0
G1 X126.214 Y103.242 E0
G1 X126.547 Y103.536 E0
M204 S1000
G1 X126.277 Y103.841 F10800.000
M204 S300
;TYPE:External perimeter
G1 F1200.000
G1 X126.529 Y104.198 E0
G1 X126.676 Y104.587 E0
G1 X126.727 Y105.000 E0
G1 X126.676 Y105.416 E0
G1 X126.508 Y105.833 E0
G1 X126.292 Y106.145 E0
G1 X125.981 Y106.421 E0
G1 X125.612 Y106.614 E0
G1 X125.206 Y106.715 E0
G1 X124.756 Y106.705 E0
G1 X124.388 Y106.614 E0
G1 X124.019 Y106.421 E0
G1 X123.708 Y106.145 E0
G1 X123.471 Y105.802 E0
G1 X123.324 Y105.413 E0
G1 X123.273 Y105.000 E0
G1 X123.324 Y104.584 E0
G1 X123.492 Y104.167 E0
G1 X123.708 Y103.855 E0
G1 X124.019 Y103.579 E0
G1 X124.388 Y103.386 E0
G1 X124.794 Y103.285 E0
G1 X125.244 Y103.295 E0
G1 X125.612 Y103.386 E0
G1 X125.981 Y103.579 E0
G1 X126.232 Y103.801 E0
M204 S1000
G1 X126.668 Y103.758 F10800.000
;WIPE_START
G1 F8640.000
G1 X126.529 Y104.198 E0
G1 X126.676 Y104.587 E0
G1 X126.727 Y105.000 E0
G1 X126.676 Y105.416 E0
G1 X126.508 Y105.833 E0
G1 X126.292 Y106.145 E0
G1 X125.981 Y106.421 E0
G1 X125.716 Y106.560 E0
;WIPE_END
G1 E0 F2100.000
G1 Z0.800 F10800.000
G1 X128.961 Y101.039
G1 Z0.400
G1 E0 F2100.000
M204 S300
;TYPE:Perimeter
G1 F1200.000
G1 X128.961 Y108.961 E0
G1 X121.039 Y108.961 E0
G1 X121.039 Y101.039 E0
G1 X128.901 Y101.039 E0
M204 S1000
G1 X129.368 Y100.632 F10800.000
M204 S300
G1 F1200.000
G1 X129.368 Y109.368 E0
M73 Q3 S23
G1 X120.632 Y109.368 E0
M73 P3 R23
G1 X120.632 Y100.632 E0
G1 X129.308 Y100.632 E0
M204 S1000
G1 X129.775 Y100.225 F10800.000
M204 S300
;TYPE:External perimeter
G1 F1200.000
G1 X129.775 Y109.775 E0
G1 X120.225 Y109.775 E0
G1 X120.225 Y100.225 E0
G1 X129.715 Y100.225 E0
M204 S1000
G1 X129.671 Y100.611 F10800.000
;WIPE_START
G1 F8640.000
G1 X129.736 Y103.516 E0
;WIPE_END
G1 E0 F2100.000
G1 Z0.800 F10800.000
G1 X127.989 Y108.839
G1 Z0.400
G1 E0 F2100.000
M204 S800
;TYPE:Solid infill
;WIDTH:0.462731
G1 F1800.000
G1 X128.656 Y108.172 E0
G1 X128.656 Y107.578 E0
G1 X127.578 Y108.656 E0
G1 X126.985 Y108.656 E0
G1 X128.656 Y106.985 E0
